X: 2846
T: Bard Of Armagh, The
R: waltz
M: 3/4
K: Bminor
F2|B2BcdB|c2f3e|d2B2B2|A2F3F|B2BcdB|c2f3e|
d2B2B2|B4[1F2:|2 c2||d2defd|c2A2F2|G2GBAG|
F2D2A2|d2defd|c2A2F2|GFED CB,|B,4 F2|B2BcdB|
c2f3e|d2B2B2|A2F3F|B2BcdB|c2f3e|d2B2B2|B4||

